packages/core/src/svgs/yam.svg

<svg width="24" height="24" viewBox="0 0 24 24" fill="none" xmlns="http://www.w3.org/2000/svg">
<g clip-path="url(#clip0_31_21106)">
<path d="M0 0H24V24H0V0Z" fill="#C2B2FE"/>
<path d="M5.45153 11.6226C5.23422 11.2137 5.12228 10.7571 5.12581 10.294C7.35867 8.81547 11.9272 5.84119 12.3344 5.78547C12.6181 5.73713 12.9099 5.78225 13.1658 5.91404C16.6458 9.90833 17.3744 13.2469 17.5501 15.4155C17.6315 15.9855 17.5287 17.2455 16.4872 17.7555C15.1844 18.3983 14.0701 17.6012 13.1658 17.3869C12.2658 17.1683 10.423 16.4655 9.5701 15.9169C8.72153 15.364 8.38296 14.944 7.9201 14.5112C7.45296 14.074 5.80296 12.2355 5.45153 11.6226Z" fill="url(#paint0_linear_31_21106)"/>
<path d="M14.58 8.21162C14.7472 7.98019 15.0258 8.34019 15.1458 8.54591C16.1786 9.87019 17.1172 12.7759 17.0786 12.7759C16.7915 11.8502 14.3786 8.49876 14.58 8.21162Z" fill="#EBDDD5" fill-opacity="0.7"/>
<path d="M9.32543 8.83538C11.4279 7.55517 12.9521 6.20931 12.7298 5.82932C12.5075 5.44933 10.6228 6.17911 8.52031 7.45932C6.4178 8.73953 4.89361 10.0854 5.11594 10.4654C5.33826 10.8454 7.22292 10.1156 9.32543 8.83538Z" fill="#E6DE95"/>
<path d="M5.2115 10.9843C5.10865 10.89 5.17293 10.7443 5.22008 10.6843C5.54579 10.8386 6.66865 10.5471 7.1915 10.3843C6.57436 10.62 5.31436 11.0786 5.2115 10.9843Z" fill="url(#paint1_linear_31_21106)"/>
</g>
<defs>
<linearGradient id="paint0_linear_31_21106" x1="16.1272" y1="8.28833" x2="8.70439" y2="16.024" gradientUnits="userSpaceOnUse">
<stop offset="0.01" stop-color="#F374AB"/>
<stop offset="0.3" stop-color="#ED4892"/>
<stop offset="0.91" stop-color="#A71C2D"/>
<stop offset="1" stop-color="#B91F2B"/>
</linearGradient>
<linearGradient id="paint1_linear_31_21106" x1="5.2115" y1="10.86" x2="6.86579" y2="10.8686" gradientUnits="userSpaceOnUse">
<stop stop-color="#EAC4CF"/>
<stop offset="1" stop-color="#E76D9E" stop-opacity="0"/>
</linearGradient>
<clipPath id="clip0_31_21106">
<rect width="24" height="24" fill="white"/>
</clipPath>
</defs>
</svg>

<svg xmlns="http://www.w3.org/2000/svg" width="24" height="24" fill="none" viewBox="0 0 24 24"><g clip-path="url(#a)"><path fill="#C2B2FE" d="M0 0h24v24H0z"/><path fill="url(#b)" d="M5.452 11.623a2.8 2.8 0 0 1-.326-1.329c2.233-1.479 6.801-4.453 7.208-4.509.284-.048.576-.003.832.129 3.48 3.994 4.208 7.333 4.384 9.502.081.57-.021 1.83-1.063 2.34-1.303.642-2.417-.155-3.321-.37-.9-.218-2.743-.92-3.596-1.47-.848-.552-1.187-.972-1.65-1.405-.467-.437-2.117-2.275-2.468-2.888"/><path fill="#EBDDD5" fill-opacity=".7" d="M14.58 8.212c.167-.232.446.128.566.334 1.033 1.324 1.971 4.23 1.933 4.23-.288-.926-2.7-4.277-2.499-4.564"/><path fill="#E6DE95" d="M9.325 8.835c2.103-1.28 3.627-2.626 3.405-3.006-.223-.38-2.107.35-4.21 1.63s-3.626 2.626-3.404 3.006 2.107-.35 4.21-1.63"/><path fill="url(#c)" d="M5.212 10.984c-.103-.094-.04-.24.008-.3.326.155 1.449-.137 1.971-.3-.617.236-1.877.695-1.98.6"/></g><defs><linearGradient id="b" x1="16.127" x2="8.704" y1="8.288" y2="16.024" gradientUnits="userSpaceOnUse"><stop offset=".01" stop-color="#F374AB"/><stop offset=".3" stop-color="#ED4892"/><stop offset=".91" stop-color="#A71C2D"/><stop offset="1" stop-color="#B91F2B"/></linearGradient><linearGradient id="c" x1="5.212" x2="6.866" y1="10.86" y2="10.869" gradientUnits="userSpaceOnUse"><stop stop-color="#EAC4CF"/><stop offset="1" stop-color="#E76D9E" stop-opacity="0"/></linearGradient><clipPath id="a"><path fill="#fff" d="M0 0h24v24H0z"/></clipPath></defs></svg>
